X:1
T:Title
%%score 1 [ ( 2 3 ) ( 4 5 6 ) ]
L:1/8
Q:1/4=120
M:3/4
K:C
V:1 treble nm="MusicXML Part"
V:2 treble nm="Piano" snm="Piano"
V:3 treble 
V:4 bass nm="MusicXML Part"
V:5 bass 
V:6 bass 
V:1
"^Allegretto" z6 |[M:4/4] z8 | z8 |[M:3/4] z6 |[M:4/4] z8 |[M:3/2] z12 || %6
w: ||||||
[M:3/4][Q:1/4=40]"^SOLO"!p![Q:1/4=40]"^1st. Verse" E2 | E2 ^F2 G2 |[M:2/4] B2 A2 | %9
w: I|saw a fair|maid- en|
[M:3/4] d2 c2 B2 | A4 A2 |[Q:1/4=40]"^REFRAIN" A2 B2 c2 |[M:4/4] B2 A2 d2 B2 | %13
w: sit- ten and|sing: She|lul- led a|lit- tle child, A|
[M:3/2] B2 A2 G2 E6 ||[M:3/4] z6 |[M:4/4] z8 | z8 |[M:3/4] z6 |[M:4/4] z8 |[M:3/2] z12 || %20
w: swee- té Lord- ing.|||||||
[M:4/4][Q:1/4=40]"^SOLO"!mf![Q:1/4=40]"^2nd. Verse" A^c | e3 ^c c2 B2 |[M:3/4] A4 A2 | B2 A2 ^F2 | %24
w: That E-|ter- nal Lord is|He That|made al- lé|
 G4 ^F2 |[M:4/4] E2 A2 A2 B2 | G2 E2 ^F2 G2 | A2 ^F2 FE D2 |[M:3/4] E6 || %29
w: thing; Of|al- lé Lord- és|He is Lord, Of|ev- ery King * He's|King.|
[Q:1/4=40]"^REFRAIN"[Q:1/4=40]"^SOLO" z6 |[M:4/4] z8 | z8 |[M:3/4] z6 |[M:4/4] z8 |[M:3/2] z12 || %35
w: ||||||
!p![Q:1/4=40]"^3rd. Verse" EE | A2 E2 AE E2 E2 E2 | A2 B2 ^c4 E2 E2 |[M:3/4] A2 A2 B2 | ^cc c2 A2 | %40
w: There was|mic- kle mel- o- dy At the|child- és birth; Though the|song- sters were|hea- ven- ly They|
[M:4/4] ed^cB A4 ||[M:3/4][Q:1/4=40]"^REFRAIN" z6 |[M:4/4] z8 | z8 |[M:3/4] z6 |[M:4/4] z8 | %46
w: mad- é mic- kle mirth.||||||
[M:3/2] z12 ||[M:4/4][Q:1/4=40]"^CHORUS"[Q:1/4=40]"^4th. Verse" z8 | z8 | z8 |[M:3/4] z6 | z6 | %52
w: ||||||
 z6 |[M:2/4] z4 |[M:3/4] z6 |[M:2/4] z4 |[M:3/4] z6 | z6 || %58
w: ||||||
[Q:1/4=40]"^REFRAIN"[Q:1/4=40]"^SOLO" z6 |[M:4/4] z8 | z8 |[M:3/4] z6 |[M:4/4] z8 |[M:3/2] z12 || %64
w: ||||||
[M:5/4]!p![Q:1/4=40]"^5th. Verse" e3 d ^c2 A2 B2 |[M:3/2] A2 A2 B2 ^c2 A2 ^F2 |[M:3/4] G4 ^F2 | %67
w: Pray we now to that|Child, As to His Mo- ther|dear, God|
[M:4/4] E2 A2 A2 B2 |[M:3/4] G2 E2 G2 | A2 ^FE D2 | E6 ||[Q:1/4=40]"^REFRAIN" z6 |[M:4/4] z8 | z8 | %74
w: grant them all His|bless- ing That|now mak- * en|cheer.||||
[M:3/4] z6 |[M:4/4] z8 |[M:3/2] z12 |] %77
w: |||
V:2
!p! c2 A2 B2 |[M:4/4] c2 A2 B2 c2 | d2 B2 A2 G2 |[M:3/4] A2!<(! B2 c2!<)! | %4
w: Lul- lay my|lik- ing, my dear|Son, my Sweet- ing;|Lul- lay my|
[M:4/4]!p!!>(!!>(! e2 d4!>)!!>)! B2 |[M:3/2]!pp!!>(! G2 A2 B4!>)! !fermata!A4 ||[M:3/4] z2 | z6 | %8
w: dear Heart, mine|own dear Darl- ing.|||
[M:2/4] z4 |[M:3/4] z6 | z6 | z6 |[M:4/4] z8 |[M:3/2] z12 ||[M:3/4]!p! c2 A2 B2 | %15
w: ||||||Lul- lay my|
[M:4/4] c2 A2 B2 c2 | d2 B2 A2 G2 |[M:3/4] A2!<(! B2 c2!<)! |[M:4/4]!p!!>(!!>(! e2 d4!>)!!>)! B2 | %19
w: lik- ing, my dear|Son, my Sweet- ing;|Lul- lay my|dear Heart, mine|
[M:3/2]!pp!!>(! G2 A2 B4!>)! !fermata!A4 ||[M:4/4] z2 | z8 |[M:3/4] z6 | z6 | z6 |[M:4/4] z8 | z8 | %27
w: own dear Darl- ing.||||||||
 z8 |[M:3/4] z6 ||!p! c2 A2 B2 |[M:4/4] c2 A2 B2 c2 | d2 B2 A2 G2 |[M:3/4] A2!<(! B2 c2!<)! | %33
w: ||Lul- lay my|lik- ing, my dear|Son, my sweet- ing;|Lul- lay my|
[M:4/4]!p!!>(!!>(! e2 d4!>)!!>)! B2 |[M:3/2]!pp!!>(! G2 A2 B4!>)! !fermata!A4 || z2 | z12 | z12 | %38
w: dear Heart, mine|own dear Darl- ing.||||
[M:3/4] z6 | z6 |[M:4/4] z8 ||[M:3/4] c2 A2 B2 |[M:4/4] c2 A2 B2 c2 | d2 B2 A2 G2 | %44
w: |||Lul- lay my|lik- ing, my dear|Son, my Sweet- ing;|
[M:3/4] A2!<(! B2 c2!<)! |[M:4/4]!p!!>(!!>(! e2 d4!>)!!>)! B2 | %46
w: Lul- lay my|dear Heart, mine|
[M:3/2]!pp!!>(! G2 A2 B4!>)! !fermata!A4 ||[M:4/4]!mf! e3 d ^c2 A2 | B2 B2 A2 A2 | B2 ^c2 A2 ^F2 | %50
w: own dear Darl- ing.|An- gels bright they|sang that night And|said- en to that|
[M:3/4] G6 |!f! G2 G2 G2 | c4 G2 |[M:2/4] c2 d2 |[M:3/4] [ce]4 [ce]2 |[M:2/4] e2 e2 | %56
w: Child|"Bless- ed be|Thou and|so be|she That|is so|
[M:3/4] [cf]4 [ce]2 | d6 || c2 A2 B2 |[M:4/4] c2 A2 B2 c2 | d2 B2 A2 G2 |[M:3/4] A2!<(! B2 c2!<)! | %62
w: meek and|mild."|Lul- lay my|lik- ing, my dear|Son, my Sweet- ing;|Lul- lay my|
[M:4/4]!p!!>(!!>(! e2 d4!>)!!>)! B2 |[M:3/2]!pp!!>(! G2 A2 B4!>)! !fermata!A4 ||[M:5/4] z10 | %65
w: dear Heart, mine|own dear Darl- ing.||
[M:3/2] z12 |[M:3/4] z6 |[M:4/4] z8 |[M:3/4] z6 | z6 | z6 || c2 A2 B2 |[M:4/4] c2 A2 B2 c2 | %73
w: ||||||Lul- lay my|lik- ing, my dear|
 d2 B2 A2 G2 |[M:3/4] A2!<(! B2 c2!<)! |[M:4/4]!p!!>(!!>(! e2 d4!>)!!>)! B2 | %76
w: Son, my Sweet- ing;|Lul- lay my|dear Heart, mine|
[M:3/2]!pp!!>(! G2 A2 B4!>)! !fermata!A4 |] %77
w: own dear Darl- ing.|
V:3
 E2 E2 G2 |[M:4/4] E2 E2 G2 E2 | G2 F2 E2 E2 |[M:3/4] C2 D2 E2 |[M:4/4] G2 G4 G2 | %5
[M:3/2] D2 E2 G2 ^F2 E4 ||[M:3/4] x2 | x6 |[M:2/4] x4 |[M:3/4] x6 | x6 | x6 |[M:4/4] x8 | %13
[M:3/2] x12 ||[M:3/4] E2 E2 G2 |[M:4/4] E2 E2 G2 E2 | G2 F2 E2 E2 |[M:3/4] C2 D2 E2 | %18
[M:4/4] G2 G4 G2 |[M:3/2] D2 E2 (G2 ^F2) E4 ||[M:4/4] x2 | x8 |[M:3/4] x6 | x6 | x6 |[M:4/4] x8 | %26
 x8 | x8 |[M:3/4] x6 || E2 E2 G2 |[M:4/4] E2 E2 G2 E2 | G2 F2 E2 E2 |[M:3/4] C2 D2 E2 | %33
[M:4/4] G2 G4 G2 |[M:3/2] D2 E2 G2 ^F2 E4 || x2 | x12 | x12 |[M:3/4] x6 | x6 |[M:4/4] x8 || %41
[M:3/4] E2 E2 G2 |[M:4/4] E2 E2 G2 E2 | G2 F2 E2 E2 |[M:3/4] C2 D2 E2 |[M:4/4] G2 G4 G2 | %46
[M:3/2] D2 E2 G2 ^F2 E4 ||[M:4/4] z8 | z8 | z8 |[M:3/4] z6 | G2 G2 G2 | c4 G2 |[M:2/4] E2 G2 | %54
[M:3/4] G4 G2 |[M:2/4] G2 G2 |[M:3/4] A4 G2 | [^FA]6 || E2 E2 G2 |[M:4/4] E2 E2 G2 E2 | %60
 G2 F2 E2 E2 |[M:3/4] C2 D2 E2 |[M:4/4] G2 G4 G2 |[M:3/2] D2 E2 (G2 ^F2) E4 ||[M:5/4] x10 | %65
[M:3/2] x12 |[M:3/4] x6 |[M:4/4] x8 |[M:3/4] x6 | x6 | x6 || E2 E2 G2 |[M:4/4] E2 E2 G2 E2 | %73
 G2 F2 E2 E2 |[M:3/4] C2 D2 E2 |[M:4/4] G2 G4 G2 |[M:3/2] D2 E2 G2 ^F2 E4 |] %77
V:4
!p! x6 |[M:4/4] x8 | x8 |[M:3/4] x6 |[M:4/4]!p! x8 |[M:3/2]!pp!!>(! x12!>)! ||[M:3/4] z2 | z6 | %8
[M:2/4] z4 |[M:3/4] z6 | z6 | z6 |[M:4/4] z8 |[M:3/2] z12 ||[M:3/4]!p! x6 |[M:4/4] x8 | x8 | %17
[M:3/4] x6 |[M:4/4]!p! x8 |[M:3/2]!pp!!>(! x12!>)! ||[M:4/4] z2 | z8 |[M:3/4] z6 | z6 | z6 | %25
[M:4/4] z8 | z8 | z8 |[M:3/4] z6 || x6 |[M:4/4] x8 | x8 |[M:3/4] x6 |[M:4/4]!p! x8 | %34
[M:3/2]!pp!!>(! x12!>)! || z2 | z12 | z12 |[M:3/4] z6 | z6 |[M:4/4] z8 ||[M:3/4] x6 |[M:4/4] x8 | %43
 x8 |[M:3/4] x6 |[M:4/4]!p! x8 |[M:3/2]!pp!!>(! x12!>)! ||[M:4/4]!mf! E3 D ^C2 A,2 | %48
 B,2 B,2 A,2 A,2 | B,2 ^C2 A,2 ^F,2 |[M:3/4] G,6 |!f! x6 | x6 |[M:2/4] x4 |[M:3/4] x6 |[M:2/4] x4 | %56
[M:3/4] x6 | x6 || x6 |[M:4/4] x8 | x8 |[M:3/4] x6 |[M:4/4]!p! x8 |[M:3/2]!pp!!>(! x12!>)! || %64
[M:5/4] z10 |[M:3/2] z12 |[M:3/4] z6 |[M:4/4] z8 |[M:3/4] z6 | z6 | z6 || x6 |[M:4/4] x8 | x8 | %74
[M:3/4] x6 |[M:4/4]!p! x8 |[M:3/2]!pp!!>(! x12!>)! |] %77
V:5
 E2 C2 D2 |[M:4/4] E2 C2 D2 E2 | B,2 D2 B,2 B,2 |[M:3/4] A,2!<(! F,2 G,2!<)! |[M:4/4] G,2 B,4 D2 | %5
[M:3/2] D2 C2 D4 ^C4 ||[M:3/4] x2 | x6 |[M:2/4] x4 |[M:3/4] x6 | x6 | x6 |[M:4/4] x8 | %13
[M:3/2] x12 ||[M:3/4] E2 C2 D2 |[M:4/4] E2 C2 D2 E2 | B,2 D2 B,2 B,2 |[M:3/4] A,2!<(! F,2 G,2!<)! | %18
[M:4/4] G,2 B,4 D2 |[M:3/2] D2 C2 D4 ^C4 ||[M:4/4] x2 | x8 |[M:3/4] x6 | x6 | x6 |[M:4/4] x8 | x8 | %27
 x8 |[M:3/4] x6 || E2 C2 D2 |[M:4/4] E2 C2 D2 E2 | B,2 D2 B,2 B,2 |[M:3/4] A,2!<(! F,2 G,2!<)! | %33
[M:4/4] G,2 B,4 D2 |[M:3/2] D2 C2 D4 ^C4 || x2 | x12 | x12 |[M:3/4] x6 | x6 |[M:4/4] x8 || %41
[M:3/4] E2 C2 D2 |[M:4/4] E2 C2 D2 E2 | B,2 D2 B,2 B,2 |[M:3/4] A,2!<(! F,2 G,2!<)! | %45
[M:4/4] G,2 B,4 D2 |[M:3/2] D2 C2 D4 ^C4 ||[M:4/4] x8 | x8 | x8 |[M:3/4] x6 | G,2 G,2 G,2 | C4 D2 | %53
[M:2/4] C2 B,2 |[M:3/4] C4 E2 |[M:2/4] E2 E2 |[M:3/4] C4 C2 | A,6 || E2 C2 D2 | %59
[M:4/4] E2 C2 D2 E2 | B,2 D2 B,2 B,2 |[M:3/4] A,2!<(! F,2 G,2!<)! |[M:4/4] G,2 B,4 D2 | %63
[M:3/2] D2 C2 D4 ^C4 ||[M:5/4] x10 |[M:3/2] x12 |[M:3/4] x6 |[M:4/4] x8 |[M:3/4] x6 | x6 | x6 || %71
 E2 C2 D2 |[M:4/4] E2 C2 D2 E2 | B,2 D2 B,2 B,2 |[M:3/4] A,2!<(! F,2 G,2!<)! |[M:4/4] G,2 B,4 D2 | %76
[M:3/2] D2 C2 D4 ^C4 |] %77
V:6
 A,2 C2 B,2 |[M:4/4] A,2 C2 B,2 A,2 | G,2 D,2 E,2 E,2 |[M:3/4] F,2 D,2 C,2 |[M:4/4] C,2 G,4 G,2 | %5
[M:3/2] B,2 A,2 G,4 !fermata!A,4 ||[M:3/4] x2 | x6 |[M:2/4] x4 |[M:3/4] x6 | x6 | x6 |[M:4/4] x8 | %13
[M:3/2] x12 ||[M:3/4] A,2 C2 B,2 |[M:4/4] A,2 C2 B,2 A,2 | G,2 D,2 E,2 E,2 |[M:3/4] F,2 D,2 C,2 | %18
[M:4/4] C,2 G,4 G,2 |[M:3/2] B,2 A,2 G,4 !fermata!A,4 ||[M:4/4] x2 | x8 |[M:3/4] x6 | x6 | x6 | %25
[M:4/4] x8 | x8 | x8 |[M:3/4] x6 || A,2 C2 B,2 |[M:4/4] A,2 C2 B,2 A,2 | G,2 D,2 E,2 E,2 | %32
[M:3/4] F,2 D,2 C,2 |[M:4/4] C,2 G,4 G,2 |[M:3/2] B,2 A,2 G,4 !fermata!A,4 || x2 | x12 | x12 | %38
[M:3/4] x6 | x6 |[M:4/4] x8 ||[M:3/4] A,2 C2 B,2 |[M:4/4] A,2 C2 B,2 A,2 | G,2 D,2 E,2 E,2 | %44
[M:3/4] F,2 D,2 C,2 |[M:4/4] C,2 G,4 G,2 |[M:3/2] B,2 A,2 G,4 !fermata!A,4 ||[M:4/4] x8 | x8 | x8 | %50
[M:3/4] x6 | G,2 G,2 G,2 | C4 B,2 |[M:2/4] A,2 G,2 |[M:3/4] C4 C2 |[M:2/4] C2 C2 |[M:3/4] F,4 C,2 | %57
 D,6 || A,2 C2 B,2 |[M:4/4] A,2 C2 B,2 A,2 | G,2 D,2 E,2 E,2 |[M:3/4] F,2 D,2 C,2 | %62
[M:4/4] C,2 G,4 G,2 |[M:3/2] B,2 A,2 G,4 !fermata!A,4 ||[M:5/4] x10 |[M:3/2] x12 |[M:3/4] x6 | %67
[M:4/4] x8 |[M:3/4] x6 | x6 | x6 || A,2 C2 B,2 |[M:4/4] A,2 C2 B,2 A,2 | G,2 D,2 E,2 E,2 | %74
[M:3/4] F,2 D,2 C,2 |[M:4/4] C,2 G,4 G,2 |[M:3/2] B,2 A,2 G,4 !fermata!A,4 |] %77

